newicons/fitcloudpro.svg

<?xml version="1.0" encoding="UTF-8" standalone="no"?>
<svg
   viewBox="0 0 48 48"
   version="1.1"
   id="svg1"
   sodipodi:docname="fitcloudpro.svg"
   inkscape:version="1.2.2 (b0a8486541, 2022-12-01)"
   xml:space="preserve"
   xmlns:inkscape="http://www.inkscape.org/namespaces/inkscape"
   xmlns:sodipodi="http://sodipodi.sourceforge.net/DTD/sodipodi-0.dtd"
   xmlns="http://www.w3.org/2000/svg"
   xmlns:svg="http://www.w3.org/2000/svg"><sodipodi:namedview
     id="namedview1"
     pagecolor="#505050"
     bordercolor="#eeeeee"
     borderopacity="1"
     inkscape:showpageshadow="0"
     inkscape:pageopacity="0"
     inkscape:pagecheckerboard="0"
     inkscape:deskcolor="#505050"
     inkscape:zoom="12.59534"
     inkscape:cx="-2.9375945"
     inkscape:cy="24.850461"
     inkscape:window-width="1918"
     inkscape:window-height="1053"
     inkscape:window-x="0"
     inkscape:window-y="0"
     inkscape:window-maximized="1"
     inkscape:current-layer="svg1"
     showgrid="false" /><defs
     id="defs1"><style
       id="style1">.a { fill:none;stroke:#fff;stroke-linecap:round;stroke-linejoin:round; }
</style></defs><g
     id="g1349"><path
       style="fill:none;stroke:#ffffff;stroke-linecap:round;stroke-linejoin:round;stroke-dashoffset:3.6;stroke-opacity:1"
       d="m 9.5,5.5 h 29 c 2.216,0 4,1.784 4,4 v 29 c 0,2.216 -1.784,4 -4,4 h -29 c -2.216,0 -4,-1.784 -4,-4 v -29 c 0,-2.216 1.784,-4 4,-4 z"
       id="path1333" /><path
       style="fill:none;stroke:#ffffff;stroke-linecap:round;stroke-linejoin:round;stroke-dashoffset:3.6;stroke-opacity:1"
       d="M 11.496394,42.516449 C 20.811753,37.611741 34.632145,27.139381 38.896786,20.859985 42.821118,15.08167 33.775611,10.989764 28.192777,9.2907561 24.693961,8.2259715 18.454233,6.8647002 18.637973,5.4993561"
       id="path1331" /><path
       style="fill:none;stroke:#ffffff;stroke-linecap:round;stroke-linejoin:round;stroke-dashoffset:3.6;stroke-opacity:1"
       d="M 5.4702693,21.79957 C 12.092842,20.029886 21.620548,17.205292 22.287634,14.429663 22.877314,11.976103 21.261995,10.385096 16.275648,8.5474755 14.135906,7.7589151 12.535956,6.6491921 13.568055,5.500638"
       id="path1329" /><path
       style="fill:none;stroke:#ffffff;stroke-linecap:round;stroke-linejoin:round;stroke-dashoffset:3.6;stroke-opacity:1"
       d="m 17.077828,5.5010207 c -0.609607,1.3271004 2.625384,2.2093394 7.156634,3.6031826 8.744747,2.6899427 11.451776,7.0502487 5.947023,11.2140247 C 23.409288,25.440693 14.514517,30.42616 5.5007605,34.612157"
       id="path1327" /><path
       style="fill:none;stroke:#ffffff;stroke-linecap:round;stroke-linejoin:round;stroke-dashoffset:3.6;stroke-opacity:1"
       d="m 15.531226,5.4995835 c -1.299988,1.3966092 1.946627,2.3897716 6.228629,4.0616881 5.701679,2.2262324 7.571222,6.1247374 1.473319,9.3717444 C 17.792863,21.82987 11.947713,24.32326 5.5020082,26.46742"
       id="path1297" /></g></svg>

<?xml version="1.0" encoding="UTF-8"?><svg id="b" xmlns="http://www.w3.org/2000/svg" viewBox="0 0 48 48"><defs><style>.i{fill:none;stroke:#fff;stroke-linecap:round;stroke-linejoin:round;}</style></defs><g id="c"><path id="d" class="i" d="M9.5149,5.4921h29c2.216,0,4,1.784,4,4v29c0,2.216-1.784,4-4,4H9.5149c-2.216,0-4-1.784-4-4V9.4921c0-2.216,1.784-4,4-4Z"/><path id="e" class="i" d="M11.5113,42.5085c9.3154-4.9047,23.1358-15.3771,27.4004-21.6565,3.9243-5.7783-5.1212-9.8702-10.704-11.5692-3.4988-1.0648-9.7385-2.4261-9.5548-3.7914"/><path id="f" class="i" d="M5.4851,21.7917c6.6226-1.7697,16.1503-4.5943,16.8174-7.3699.5897-2.4536-1.0256-4.0446-6.012-5.8822-2.1397-.7886-3.7397-1.8983-2.7076-3.0468"/><path id="g" class="i" d="M17.0927,5.4931c-.6096,1.3271,2.6254,2.2093,7.1566,3.6032,8.7447,2.6899,11.4518,7.0502,5.947,11.214-6.7722,5.1225-15.667,10.1079-24.6807,14.2939"/><path id="h" class="i" d="M15.5461,5.4917c-1.3,1.3966,1.9466,2.3898,6.2286,4.0617,5.7017,2.2262,7.5712,6.1247,1.4733,9.3717-5.4403,2.8969-11.2855,5.3902-17.7312,7.5344"/></g></svg>
